src/svg/present-box-filled.svg

<?xml version="1.0" encoding="UTF-8"?><svg id="_イヤー_2" xmlns="http://www.w3.org/2000/svg" viewBox="0 0 591.02334 591.02334"><defs><style>.cls-1{fill:#040000;}</style></defs><path class="cls-1" d="M501.96268,184.00744h-126.45194c4.93847-3.62474,10.17293-6.89984,16.7964-11.00978l1.72928-1.10359c5.75883-3.5296,17.2765-8.95481,27.47273-13.76163,25.24005-11.84699,32.81905-15.41226,35.79985-26.78118,1.61508-6.15539,.50107-12.64614-3.09499-17.85016-5.55374-8.10571-34.84432-31.51903-49.50126-35.39826-2.39116-.62553-6.1224-1.45085-10.26615-1.45085-4.50499,0-8.76293,.96327-12.60837,2.83272-36.89289,18.28066-65.29785,48.463-84.50639,70.3898-22.6671-23.42283-55.91964-52.25899-82.47879-69.26242-4.16472-2.68288-9.14981-4.10042-14.31668-4.10042-4.39312,0-8.05677,.96564-10.46891,1.59117-14.65694,3.87923-43.94985,27.29255-49.57118,35.42204-3.41195,4.99471-4.5749,11.31184-3.20919,17.28171,2.73143,11.49736,10.60641,15.75951,39.85271,31.66887,7.91927,4.28594,16.13685,8.73362,20.50667,11.48547,3.86874,2.44027,7.6932,4.74974,11.47105,6.98071,1.70598,1.04413,3.41428,2.06686,5.05267,3.0658H89.06066c-10.21954,0-18.54899,8.47674-18.54899,18.92997v88.3898h194.04773v-88.70375h61.90454v88.70375h194.04773v-88.3898c0-10.45322-8.30614-18.92997-18.54899-18.92997Zm-111.11215-81.49234c1.11634-.54466,2.36786-.73256,3.59607-.73256,1.72928,0,3.48187,.36152,5.09928,.79202,9.2174,2.426,30.4745,18.12844,33.84217,23.00423,1.82017,2.68288-34.98182,19.00132-50.00233,28.40803-14.11159,8.72172-24.05612,14.6797-36.30092,27.65169h-47.63447c15.54256-23.62262,47.2476-57.31316,91.40021-79.12341Zm-182.41587,53.55048c-13.70141-8.59567-48.86501-27.80391-47.02153-30.48679,3.36767-4.87579,24.62478-20.57822,33.8212-23.00423,1.63839-.44239,3.52615-.94186,5.30204-.94186,1.20723,0,2.36786,.24498,3.41428,.8824,39.26074,25.15433,75.78773,55.72199,91.71949,79.12341h-47.97707c-12.51748-10.17495-25.8996-17.16517-39.25841-25.57294Z"/><path class="cls-1" d="M326.46394,507.52224h-61.90454v-190.00608H99.14269v190.08695c0,10.42944,8.35275,18.90856,18.52568,18.90856H473.33166c10.19623,0,18.52568-8.47912,18.52568-18.90856v-190.08695h-165.3934v190.00608Z"/></svg>

<svg id="レイヤー_2" data-name="レイヤー 2" xmlns="http://www.w3.org/2000/svg" viewBox="0 0 591.02 591.02"><defs><style>.cls-1{fill:#040000;}</style></defs><path class="cls-1" d="M502,184H375.51c4.94-3.63,10.17-6.9,16.8-11l1.73-1.11c5.76-3.53,17.27-8.95,27.47-13.76,25.24-11.84,32.82-15.41,35.8-26.78a21.66,21.66,0,0,0-3.1-17.85c-5.55-8.1-34.84-31.52-49.5-35.4a41.25,41.25,0,0,0-10.26-1.45,28.74,28.74,0,0,0-12.61,2.83C345,97.77,316.54,128,297.33,149.87c-22.67-23.42-55.92-52.25-82.48-69.26a26.43,26.43,0,0,0-14.31-4.1,40.46,40.46,0,0,0-10.47,1.59c-14.66,3.88-43.95,27.3-49.57,35.42a22,22,0,0,0-3.21,17.29c2.73,11.49,10.6,15.76,39.85,31.67,7.92,4.28,16.14,8.73,20.51,11.48,3.87,2.44,7.69,4.75,11.47,7,1.7,1.05,3.41,2.07,5,3.07H89.06a18.76,18.76,0,0,0-18.55,18.93v88.39H264.56V202.62h61.9v88.71H520.51V202.94A18.74,18.74,0,0,0,502,184ZM390.85,102.52a8.13,8.13,0,0,1,3.6-.74,20.18,20.18,0,0,1,5.1.79c9.21,2.43,30.47,18.13,33.84,23,1.82,2.68-35,19-50,28.41-14.12,8.72-24.06,14.68-36.31,27.65H299.45C315,158,346.7,124.33,390.85,102.52ZM208.43,156.07c-13.7-8.6-48.86-27.81-47-30.49,3.37-4.88,24.63-20.58,33.82-23a21.26,21.26,0,0,1,5.31-.94,6.42,6.42,0,0,1,3.41.89c39.26,25.15,75.79,55.72,91.72,79.12h-48C235.18,171.46,221.79,164.47,208.43,156.07Z"/><path class="cls-1" d="M326.46,507.52h-61.9v-190H99.14V507.6a18.77,18.77,0,0,0,18.53,18.91H473.33a18.75,18.75,0,0,0,18.53-18.91V317.52H326.46Z"/></svg>
